X: 10151
M: 6/8
L: 1/8
K: G
V: 1 staves=3
z |\
.d2z .d2z | dBg dBG | .c2z .c2z | cAB cBA |\
.d2z .d2z | dBg dBG | EGc BcA | G3 z2 :|
|: d |\
dBc dBc | dBg dBG | cAB cAB | cAB cBA |\
dBc dBc | dBg dBG | EGc BcA | G3 z2 :|
V: 2
z |\
.B2z .B2z | BGA BGB | .A2z .A2z | AFG AGF |\
.B2z .B2z | BGB BGB, | CEE DEC | B,3 z2 :|
|: B |\
V: 3 clef=bass middle=d
z |\
.g2z .g2z | g3 g3 | .d2z .d2z | d'6 |\
.g2z .g2z | ggg ggg | c2c d2d | G3 z2 :|
|: g |\
g2z g2z | ggg g3 | d2z d2z | ddd d3 |\
g2z g2z | g2g g3 | c2c d2d | G3 z2 :|



